images/svg/008-mother.svg

<svg id="egah4l6l9ktj1" xmlns="http://www.w3.org/2000/svg" xmlns:xlink="http://www.w3.org/1999/xlink" viewBox="0 0 512.028000 512.028000" shape-rendering="geometricPrecision" text-rendering="geometricPrecision"><style><![CDATA[#egah4l6l9ktj3_ts {animation: egah4l6l9ktj3_ts__ts 3000ms linear 1 normal forwards}@keyframes egah4l6l9ktj3_ts__ts { 0% {transform: translate(255.999985px,256.047394px) scale(0.500000,0.500000)} 33.333333% {transform: translate(255.999985px,256.047394px) scale(1,1)} 66.666667% {transform: translate(255.999985px,256.047394px) scale(0.500000,0.500000)} 100% {transform: translate(255.999985px,256.047394px) scale(1,1)} }#egah4l6l9ktj6_ts {animation: egah4l6l9ktj6_ts__ts 3000ms linear 1 normal forwards}@keyframes egah4l6l9ktj6_ts__ts { 0% {transform: translate(255.998978px,259.295250px) scale(0.500000,0.500000)} 33.333333% {transform: translate(255.998978px,259.295250px) scale(1,1)} 66.666667% {transform: translate(255.998978px,259.295250px) scale(0.500000,0.500000)} 100% {transform: translate(255.998978px,259.295250px) scale(1,1)} }#egah4l6l9ktj7_to {animation: egah4l6l9ktj7_to__to 3000ms linear 1 normal forwards}@keyframes egah4l6l9ktj7_to__to { 0% {transform: translate(249.889056px,323.555335px)} 33.333333% {transform: translate(249.889056px,384.721409px)} 66.666667% {transform: translate(255.998953px,322.702261px)} 100% {transform: translate(256.013989px,391.063277px)} }#egah4l6l9ktj7_ts {animation: egah4l6l9ktj7_ts__ts 3000ms linear 1 normal forwards}@keyframes egah4l6l9ktj7_ts__ts { 0% {transform: scale(0.500000,0.500000)} 33.333333% {transform: scale(1,1)} 66.666667% {transform: scale(0.500000,0.500000)} 100% {transform: scale(1,1)} }#egah4l6l9ktj9_to {animation: egah4l6l9ktj9_to__to 3000ms linear 1 normal forwards}@keyframes egah4l6l9ktj9_to__to { 0% {transform: translate(253.998957px,299.700125px)} 33.333333% {transform: translate(255.998957px,346.634999px)} 66.666667% {transform: translate(256.013996px,298.769499px)} 100% {transform: translate(256.013996px,343.197753px)} }#egah4l6l9ktj9_ts {animation: egah4l6l9ktj9_ts__ts 3000ms linear 1 normal forwards}@keyframes egah4l6l9ktj9_ts__ts { 0% {transform: scale(0.500000,0.500000)} 33.333333% {transform: scale(1,1)} 66.666667% {transform: scale(0.500000,0.500000)} 100% {transform: scale(1,1)} }#egah4l6l9ktj10_ts {animation: egah4l6l9ktj10_ts__ts 3000ms linear 1 normal forwards}@keyframes egah4l6l9ktj10_ts__ts { 0% {transform: translate(256.013996px,259.295254px) scale(0.500000,0.500000)} 33.333333% {transform: translate(256.013996px,259.295254px) scale(1,1)} 66.666667% {transform: translate(256.013996px,259.295254px) scale(0.500000,0.500000)} 100% {transform: translate(256.013996px,259.295254px) scale(1,1)} }#egah4l6l9ktj13_ts {animation: egah4l6l9ktj13_ts__ts 3000ms linear 1 normal forwards}@keyframes egah4l6l9ktj13_ts__ts { 0% {transform: translate(256.014053px,256.014599px) scale(0.500000,0.500000)} 33.333333% {transform: translate(256.014053px,256.014599px) scale(1,1)} 66.666667% {transform: translate(256.014053px,256.014599px) scale(0.500000,0.500000)} 100% {transform: translate(256.014053px,256.014599px) scale(1,1)} }#egah4l6l9ktj14_to {animation: egah4l6l9ktj14_to__to 3000ms linear 1 normal forwards}@keyframes egah4l6l9ktj14_to__to { 0% {transform: translate(363.283537px,168.670762px)} 33.333333% {transform: translate(463.867747px,83.038259px)} 66.666667% {transform: translate(364.642783px,172.748501px)} 100% {transform: translate(465.226993px,84.397505px)} }#egah4l6l9ktj14_ts {animation: egah4l6l9ktj14_ts__ts 3000ms linear 1 normal forwards}@keyframes egah4l6l9ktj14_ts__ts { 0% {transform: scale(0.500000,0.500000)} 33.333333% {transform: scale(1,1)} 66.666667% {transform: scale(0.500000,0.500000)} 100% {transform: scale(1,1)} }]]></style><g id="egah4l6l9ktj2"><g id="egah4l6l9ktj3_ts" transform="translate(255.999985,256.047394) scale(0.500000,0.500000)"><path id="egah4l6l9ktj3" d="M209.023000,447.726000L52.207000,290.910000C-4.069000,234.634000,-4.069000,143.393000,52.207000,87.117000C108.483000,30.841000,199.724000,30.841000,256,87.117000C312.276000,30.841000,403.517000,30.841000,459.793000,87.117000C516.069000,143.393000,516.069000,234.634000,459.793000,290.910000L302.977000,447.726000C277.032000,473.671000,234.968000,473.671000,209.023000,447.726000Z" transform="translate(-255.999985,-256.047394)" fill="rgb(255,122,122)" stroke="none" stroke-width="1"/></g><g id="egah4l6l9ktj4"><g id="egah4l6l9ktj5"><g id="egah4l6l9ktj6_ts" transform="translate(255.998978,259.295250) scale(0.500000,0.500000)"><path id="egah4l6l9ktj6" d="M380.427000,275.210000C390.309000,252.107000,385.839000,224.331000,366.985000,205.477000C363.184000,201.676000,359.018000,198.465000,354.603000,195.832000C339.805000,155.728000,301.243000,127.131000,255.999000,127.131000C210.755000,127.131000,172.193000,155.728000,157.395000,195.832000C152.980000,198.465000,148.814000,201.676000,145.013000,205.477000C126.159000,224.331000,121.689000,252.107000,131.571000,275.210000C106.981000,302.578000,107.844000,344.718000,134.169000,371.043000C161.391000,398.265000,205.528000,398.265000,232.750000,371.043000C242.551000,361.242000,248.805000,349.248000,251.545000,336.642000L260.452000,336.642000C263.192000,349.247000,269.446000,361.242000,279.247000,371.043000C306.470000,398.265000,350.606000,398.265000,377.828000,371.043000C404.154000,344.718000,405.017000,302.577000,380.427000,275.210000Z" transform="translate(-255.998978,-259.295250)" fill="rgb(134,142,175)" stroke="none" stroke-width="1"/></g></g><g id="egah4l6l9ktj7_to" transform="translate(249.889056,323.555335)"><g id="egah4l6l9ktj7_ts" transform="scale(0.500000,0.500000)"><path id="egah4l6l9ktj7" d="M256.064000,467.183000C273.045000,467.167000,290.021000,460.682000,302.977000,447.726000L386.024000,364.679000C373.640000,351.969000,356.347000,344.064000,337.199000,344.064000L284.184000,344.064000L284.184000,314.940000L227.816000,314.940000L227.816000,344.064000L174.801000,344.064000C155.654000,344.064000,138.361000,351.968000,125.976000,364.679000L209.023000,447.726000C221.979000,460.682000,238.955000,467.167000,255.936000,467.183000Z" transform="translate(-255.999985,-391.061523)" fill="rgb(203,244,251)" stroke="none" stroke-width="1"/></g></g><g id="egah4l6l9ktj8"><g id="egah4l6l9ktj9_to" transform="translate(253.998957,299.700125)"><g id="egah4l6l9ktj9_ts" transform="scale(0.500000,0.500000)"><path id="egah4l6l9ktj9" d="M227.816000,314.940000L227.816000,343.268000L256,371.452000L284.184000,343.268000L284.184000,314.940000Z" transform="translate(-255.999992,-343.195999)" fill="rgb(228,186,137)" stroke="none" stroke-width="1"/></g></g><g id="egah4l6l9ktj10_ts" transform="translate(256.013996,259.295254) scale(0.500000,0.500000)"><path id="egah4l6l9ktj10" d="M199.631000,230.392000L199.631000,262.010000C199.631000,293.141000,224.868000,318.379000,256,318.379000C287.131000,318.379000,312.369000,293.142000,312.369000,262.010000L312.369000,230.392000L276.786000,230.392000L247.027000,219.930000L220.511000,230.392000Z" transform="translate(-255.999992,-269.154503)" fill="rgb(228,186,137)" stroke="none" stroke-width="1"/></g></g></g><g id="egah4l6l9ktj11"><g id="egah4l6l9ktj12"><g id="egah4l6l9ktj13_ts" transform="translate(256.014053,256.014599) scale(0.500000,0.500000)"><path id="egah4l6l9ktj13" d="M495.189000,118.938000C492.676000,114.019000,486.653000,112.071000,481.735000,114.580000C476.816000,117.092000,474.865000,123.115000,477.377000,128.034000C503.895000,179.962000,493.986000,242.575000,452.722000,283.839000L407.895000,328.666000C409.557000,309.246000,404.147000,289.382000,391.835000,273.309000C400.559000,247.059000,393.891000,218.241000,374.057000,198.407000C370.597000,194.947000,366.800000,191.841000,362.738000,189.141000C345.285000,145.926000,302.828000,117.131000,256.001000,117.131000C209.174000,117.131000,166.716000,145.926000,149.263000,189.141000C145.201000,191.840000,141.404000,194.947000,137.944000,198.407000C118.110000,218.241000,111.442000,247.059000,120.166000,273.309000C107.855000,289.382000,102.445000,309.246000,104.107000,328.666000L59.280000,283.839000C33.949000,258.510000,20,224.833000,20,189.013000C20,153.193000,33.949000,119.517000,59.278000,94.188000C111.565000,41.901000,196.643000,41.901000,248.928000,94.188000C252.834000,98.092000,259.164000,98.092000,263.071000,94.188000C304.335000,52.923000,366.950000,43.014000,418.877000,69.534000C423.794000,72.044000,429.818000,70.096000,432.331000,65.176000C434.843000,60.258000,432.892000,54.234000,427.973000,51.722000C399.201000,37.028000,367.022000,31.804000,334.916000,36.624000C305.357000,41.059000,278.265000,53.714000,255.997000,73.399000C195.545000,20.046000,102.919000,22.263000,45.136000,80.045000C16.029000,109.152000,0,147.851000,0,189.013000C0,230.176000,16.029000,268.874000,45.136000,297.981000L201.951000,454.797000C216.852000,469.697000,236.426000,477.148000,256,477.148000C275.573000,477.148000,295.147000,469.698000,310.049000,454.797000L466.864000,297.981000C490.355000,274.490000,505.370000,244.755000,510.286000,211.995000C515.104000,179.890000,509.883000,147.711000,495.189000,118.938000ZM140.767000,271.278000C132.138000,251.105000,136.581000,228.052000,152.085000,212.549000C155.219000,209.415000,158.729000,206.680000,162.518000,204.421000C164.482000,203.249000,165.986000,201.440000,166.778000,199.294000C180.498000,162.112000,216.353000,137.131000,256.001000,137.131000C295.647000,137.131000,331.503000,162.112000,345.223000,199.294000C346.015000,201.440000,347.519000,203.249000,349.483000,204.421000C353.272000,206.680000,356.782000,209.415000,359.916000,212.549000C375.420000,228.053000,379.863000,251.106000,371.234000,271.278000C369.704000,274.857000,370.388000,278.999000,372.990000,281.894000C389.468000,300.233000,392.699000,326.711000,382.075000,348.220000C369.031000,339.029000,353.525000,334.065000,337.201000,334.065000L294.186000,334.065000L294.186000,316.244000C311.216000,304.217000,322.370000,284.398000,322.370000,262.010000L322.370000,230.392000C322.370000,224.870000,317.892000,220.392000,312.370000,220.392000L277.955000,220.392000C263.205000,220.392000,251.205000,208.392000,251.205000,193.643000C251.205000,188.121000,246.727000,183.643000,241.205000,183.643000C235.683000,183.643000,231.205000,188.121000,231.205000,193.643000C231.205000,200.464000,232.685000,206.942000,235.323000,212.791000C231.058000,217.562000,224.917000,220.392000,218.362000,220.392000L199.633000,220.392000C194.111000,220.392000,189.633000,224.870000,189.633000,230.392000L189.633000,262.010000C189.633000,284.398000,200.786000,304.217000,217.817000,316.244000L217.817000,334.065000L174.802000,334.065000C158.474000,334.065000,142.970000,339.028000,129.927000,348.219000C119.303000,326.710000,122.535000,300.231000,139.011000,281.894000C141.612000,278.998000,142.297000,274.857000,140.767000,271.278000ZM274.185000,339.125000L256,357.310000L237.815000,339.125000L237.815000,325.825000C243.598000,327.476000,249.694000,328.378000,256,328.378000C262.306000,328.378000,268.401000,327.475000,274.185000,325.825000ZM209.632000,240.392000L218.361000,240.392000C229.296000,240.392000,239.619000,236.199000,247.407000,228.987000C255.607000,236.084000,266.283000,240.392000,277.954000,240.392000L302.369000,240.392000L302.369000,262.010000C302.369000,287.578000,281.568000,308.379000,256.001000,308.379000C230.434000,308.379000,209.633000,287.578000,209.633000,262.010000L209.633000,240.392000ZM295.906000,440.655000C273.903000,462.658000,238.098000,462.660000,216.094000,440.655000L140.611000,365.171000C150.480000,357.965000,162.317000,354.065000,174.801000,354.065000L224.470000,354.065000L248.929000,378.524000C250.882000,380.476000,253.441000,381.453000,256,381.453000C258.559000,381.453000,261.118000,380.476000,263.071000,378.524000L287.530000,354.065000L337.199000,354.065000C349.680000,354.065000,361.519000,357.965000,371.389000,365.171000Z" transform="translate(-256.014053,-256.014599)" fill="rgb(0,0,0)" stroke="none" stroke-width="1"/></g><g id="egah4l6l9ktj14_to" transform="translate(363.283537,168.670762)"><g id="egah4l6l9ktj14_ts" transform="scale(0.500000,0.500000)"><path id="egah4l6l9ktj14" d="M459.790000,97.116000C462.420000,97.116000,465,96.047000,466.859000,94.186000C468.729000,92.327000,469.790000,89.747000,469.790000,87.116000C469.790000,84.486000,468.729000,81.906000,466.859000,80.047000C465,78.187000,462.429000,77.116000,459.790000,77.116000C457.160000,77.116000,454.580000,78.186000,452.720000,80.047000C450.860000,81.906000,449.790000,84.486000,449.790000,87.116000C449.790000,89.747000,450.859000,92.327000,452.720000,94.186000C454.580000,96.047000,457.160000,97.116000,459.790000,97.116000Z" transform="translate(-459.790009,-87.115997)" fill="rgb(0,0,0)" stroke="none" stroke-width="1"/></g></g></g></g></g></svg>

<svg id="Capa_1" enable-background="new 0 0 512.028 512.028" height="512" viewBox="0 0 512.028 512.028" width="512" xmlns="http://www.w3.org/2000/svg"><g id="XMLID_909_"><path id="XMLID_3131_" d="m209.023 447.726-156.816-156.816c-56.276-56.276-56.276-147.517 0-203.793 56.276-56.276 147.517-56.276 203.793 0 56.276-56.276 147.517-56.276 203.793 0 56.276 56.276 56.276 147.517 0 203.793l-156.816 156.816c-25.945 25.945-68.009 25.945-93.954 0z" fill="#ff7a7a"/><g id="XMLID_769_"><g id="XMLID_3228_"><path id="XMLID_3229_" d="m380.427 275.21c9.882-23.103 5.412-50.879-13.442-69.733-3.801-3.801-7.967-7.012-12.382-9.645-14.798-40.104-53.36-68.701-98.604-68.701-45.244 0-83.806 28.597-98.604 68.701-4.415 2.633-8.581 5.844-12.382 9.645-18.854 18.854-23.324 46.63-13.442 69.733-24.59 27.368-23.727 69.508 2.598 95.833 27.222 27.222 71.359 27.222 98.581 0 9.801-9.801 16.055-21.795 18.795-34.401h8.907c2.74 12.605 8.994 24.6 18.795 34.401 27.223 27.222 71.359 27.222 98.581 0 26.326-26.325 27.189-68.466 2.599-95.833z" fill="#868eaf"/></g><path id="XMLID_3259_" d="m256.064 467.183c16.981-.016 33.957-6.501 46.913-19.457l83.047-83.047c-12.384-12.71-29.677-20.615-48.825-20.615h-53.015v-29.124h-56.368v29.124h-53.015c-19.147 0-36.44 7.904-48.825 20.615l83.047 83.047c12.956 12.956 29.932 19.441 46.913 19.457z" fill="#cbf4fb"/><g fill="#e4ba89"><path id="XMLID_3221_" d="m227.816 314.94v28.328l28.184 28.184 28.184-28.184v-28.328z"/><path id="XMLID_3220_" d="m199.631 230.392v31.618c0 31.131 25.237 56.369 56.369 56.369 31.131 0 56.369-25.237 56.369-56.369v-31.618h-35.583l-29.759-10.462-26.516 10.462z"/></g></g><g id="XMLID_1292_"><g id="XMLID_1295_"><path id="XMLID_1297_" d="m495.189 118.938c-2.513-4.919-8.536-6.867-13.454-4.358-4.919 2.512-6.87 8.535-4.358 13.454 26.518 51.928 16.609 114.541-24.655 155.805l-44.827 44.827c1.662-19.42-3.748-39.284-16.06-55.357 8.724-26.25 2.056-55.068-17.778-74.902-3.46-3.46-7.257-6.566-11.319-9.266-17.453-43.215-59.91-72.01-106.737-72.01s-89.285 28.795-106.738 72.01c-4.062 2.699-7.859 5.806-11.319 9.266-19.834 19.834-26.502 48.652-17.778 74.902-12.311 16.073-17.721 35.937-16.059 55.357l-44.827-44.827c-25.331-25.329-39.28-59.006-39.28-94.826s13.949-69.496 39.278-94.825c52.287-52.287 137.365-52.287 189.65 0 3.906 3.904 10.236 3.904 14.143 0 41.264-41.265 103.879-51.174 155.806-24.654 4.917 2.51 10.941.562 13.454-4.358 2.512-4.918.561-10.942-4.358-13.454-28.772-14.694-60.951-19.918-93.057-15.098-29.559 4.435-56.651 17.09-78.919 36.775-60.452-53.353-153.078-51.136-210.861 6.646-29.107 29.107-45.136 67.806-45.136 108.968 0 41.163 16.029 79.861 45.136 108.968l156.815 156.816c14.901 14.9 34.475 22.351 54.049 22.351 19.573 0 39.147-7.45 54.049-22.351l156.815-156.816c23.491-23.491 38.506-53.226 43.422-85.986 4.818-32.105-.403-64.284-15.097-93.057zm-354.422 152.34c-8.629-20.173-4.186-43.226 11.318-58.729 3.134-3.134 6.644-5.869 10.433-8.128 1.964-1.172 3.468-2.981 4.26-5.127 13.72-37.182 49.575-62.163 89.223-62.163 39.646 0 75.502 24.981 89.222 62.163.792 2.146 2.296 3.955 4.26 5.127 3.789 2.259 7.299 4.994 10.433 8.128 15.504 15.504 19.947 38.557 11.318 58.729-1.53 3.579-.846 7.721 1.756 10.616 16.478 18.339 19.709 44.817 9.085 66.326-13.044-9.191-28.55-14.155-44.874-14.155h-43.015v-17.821c17.03-12.027 28.184-31.846 28.184-54.234v-31.618c0-5.522-4.478-10-10-10h-34.415c-14.75 0-26.75-12-26.75-26.749 0-5.522-4.478-10-10-10s-10 4.478-10 10c0 6.821 1.48 13.299 4.118 19.148-4.265 4.771-10.406 7.601-16.961 7.601h-18.729c-5.522 0-10 4.478-10 10v31.618c0 22.388 11.153 42.207 28.184 54.234v17.821h-43.015c-16.328 0-31.832 4.963-44.875 14.154-10.624-21.509-7.392-47.988 9.084-66.325 2.601-2.896 3.286-7.037 1.756-10.616zm133.418 67.847-18.185 18.185-18.185-18.185v-13.3c5.783 1.651 11.879 2.553 18.185 2.553s12.401-.903 18.185-2.553zm-64.553-98.733h8.729c10.935 0 21.258-4.193 29.046-11.405 8.2 7.097 18.876 11.405 30.547 11.405h24.415v21.618c0 25.568-20.801 46.369-46.368 46.369s-46.368-20.801-46.368-46.369v-21.618zm86.274 200.263c-22.003 22.003-57.808 22.005-79.812 0l-75.483-75.484c9.869-7.206 21.706-11.106 34.19-11.106h49.669l24.459 24.459c1.953 1.952 4.512 2.929 7.071 2.929s5.118-.977 7.071-2.929l24.459-24.459h49.669c12.481 0 24.32 3.9 34.19 11.106z"/><path id="XMLID_1296_" d="m459.79 97.116c2.63 0 5.21-1.069 7.069-2.93 1.87-1.859 2.931-4.439 2.931-7.07 0-2.63-1.061-5.21-2.931-7.069-1.859-1.86-4.43-2.931-7.069-2.931-2.63 0-5.21 1.07-7.07 2.931-1.86 1.859-2.93 4.439-2.93 7.069 0 2.631 1.069 5.211 2.93 7.07 1.86 1.861 4.44 2.93 7.07 2.93z"/></g></g></g></svg>
